X:1
T:I Have Waked the Winter's Nights
M:C
L:1/8
S:Friesche Lust-Hof (1634)
Z:AK/Fiddler's Companion
K:Gdor
G2B2A2D2|B2 AG A4|GABc d2G2|B2A2 G4||
G2B2A2D2|B2G2 A4|GABc d2D2|B2 AG G4||
G3F E3D|CDEG ^F2D2|G3D E2C2|
A3E ^F2D2|d3A =B2AG|A3G G2G2||

